Sources/FrostedUI/Resources/Icons.xcassets/notificationBellCrossed32.imageset/notification-bell-crossed-32.svg

<svg width="32" height="32" viewBox="0 0 32 32" fill="none" xmlns="http://www.w3.org/2000/svg" data-fui-icon="true">
  <path
    d="M25.4697 8.46973C25.7626 8.17686 26.2374 8.17684 26.5303 8.46973C27.1595 9.09898 27.4886 9.89035 27.6631 10.5879C27.8384 11.2887 27.8701 11.9459 27.8701 12.3633V20.8096C27.8701 21.4515 28.0892 22.0768 28.4941 22.585L29.4043 23.7256C30.2489 24.7855 29.4597 26.2959 28.1475 26.2959H20.4717V26.9092C20.4716 29.5947 18.2608 31.7498 15.5605 31.75C12.8601 31.75 10.6485 29.5948 10.6484 26.9092V26.2959H9.5C9.08593 26.2959 8.75024 25.9599 8.75 25.5459C8.75 25.1317 9.08579 24.7959 9.5 24.7959H28.1475C28.1792 24.7959 28.1967 24.7879 28.207 24.7812C28.2198 24.773 28.2318 24.7593 28.2402 24.7422C28.2487 24.7251 28.2508 24.7099 28.25 24.7002C28.2494 24.6937 28.2466 24.6814 28.2305 24.6611L27.3213 23.5195C26.7061 22.7477 26.3701 21.7936 26.3701 20.8096V12.3633C26.3701 12.0149 26.3429 11.4903 26.208 10.9512C26.0722 10.4085 25.8404 9.90093 25.4697 9.53027C25.1768 9.23738 25.1768 8.76262 25.4697 8.46973ZM12.1484 26.9092C12.1485 28.7422 13.6642 30.25 15.5605 30.25C17.4568 30.2498 18.9716 28.7421 18.9717 26.9092V26.2959H12.1484V26.9092ZM28.4697 0.469727C28.7626 0.176862 29.2374 0.176843 29.5303 0.469727C29.8231 0.762612 29.8231 1.23739 29.5303 1.53027L3.53027 27.5303C3.23739 27.8232 2.76262 27.8231 2.46973 27.5303C2.17683 27.2374 2.17683 26.7626 2.46973 26.4697L28.4697 0.469727ZM15.5605 0.25C16.5265 0.250029 17.7078 0.383055 18.8555 0.717773C19.9973 1.05082 21.1601 1.59957 22.0303 2.46973C22.3231 2.76261 22.3231 3.23739 22.0303 3.53027C21.7374 3.82316 21.2626 3.82314 20.9697 3.53027C20.3399 2.90045 19.4366 2.44919 18.4355 2.15723C17.4406 1.86704 16.4023 1.75003 15.5605 1.75C9.57813 1.75 4.7502 6.51377 4.75 12.3633V21C4.75 21.4142 4.41419 21.75 4 21.75C3.58579 21.75 3.25 21.4142 3.25 21V12.3633C3.2502 5.66119 8.77407 0.25 15.5605 0.25Z"
    fill="currentColor"
  />
</svg>

<svg xmlns="http://www.w3.org/2000/svg" width="32" height="32" fill="none" data-fui-icon="true" viewBox="0 0 32 32"><path fill="currentColor" d="M25.47 8.47a.75.75 0 0 1 1.06 0c.63.629.959 1.42 1.133 2.118.175.7.207 1.358.207 1.775v8.447c0 .642.22 1.267.624 1.775l.91 1.14c.845 1.06.056 2.57-1.256 2.57h-7.676v.614c0 2.686-2.211 4.84-4.912 4.841-2.7 0-4.911-2.155-4.912-4.84v-.614H9.5a.75.75 0 0 1 0-1.5h18.648c.031 0 .049-.008.059-.015a.1.1 0 0 0 .033-.039.1.1 0 0 0 .01-.042c0-.006-.003-.019-.02-.039l-.909-1.142a4.35 4.35 0 0 1-.95-2.71v-8.446a6 6 0 0 0-.163-1.412c-.136-.543-.368-1.05-.738-1.42a.75.75 0 0 1 0-1.061M12.148 26.91c0 1.832 1.516 3.34 3.412 3.34 1.897 0 3.412-1.508 3.412-3.34v-.614h-6.824zM28.47.47a.75.75 0 0 1 1.06 1.06l-26 26a.75.75 0 1 1-1.06-1.06zM15.56.25c.966 0 2.148.133 3.295.468 1.142.333 2.305.882 3.175 1.752a.75.75 0 0 1-1.06 1.06c-.63-.63-1.533-1.08-2.534-1.373a10.6 10.6 0 0 0-2.876-.407c-5.982 0-10.81 4.764-10.81 10.613V21a.75.75 0 0 1-1.5 0v-8.637C3.25 5.661 8.774.25 15.56.25"/></svg>
